T: Betty Anne's
M: 6/8
L: 1/8
K: Gmaj
|:"G"G,B,D GBd|"C"cAG F2 E|"D"DFA ~d3|"D7"DFA ~c3|
"G"G,B,D GBd|"C"cAG F2 E|"D"DFA ABc|1"D7"BFA "G"GDB,:|2"D7"BFA "G"GBc||
|:"G"dba gdB|"C"cag fdB|"D"cBc ABc|"D7"edc B2 c|
"G"dba gdB|"C"cag fdB|"D"cBc ABc|1"D7"BFA "G"GBc:|2"D7"BFA "G"GDB,||
